X:148
T:Not for Joe
Z:Jack Campin, http://www.campin.me.uk/
F:Jack Campin's Nine-Note Tunebook
% last edit 24-02-2013
M:C|
L:1/4
Q:1/2=92
N:original key
K:G
z|DG  DG    | FE  FE   | DG    DG      | FG  A2|
  DG  DG    | FE  FE   |.DD    EF      |.G.G G:|
A|B>A G/A/B | c>B A/B/c| B>A   G/A/B/c/| dA  FA|
  B>A G/A/B |.cc  d>c  | B/A/G AF      | G2  G:|

